X: 22895
T: Larkin's
R: polka
M: 2/4
K: Cmajor
|:A|GE ED|CE EA|GE CE|D3 A|
GE ED|CE EA|GE DE/D/|C3:|
|:A|Gc cd|ec cA|Gc ce|d2 dc/A/|
Gc cd|ec cA|GE DE/D/|C3:|

